X: 3435
T: La SYMPATHIE WALTZ
C: William Vincent Wallace (1860-1940)
%R: waltz
B: James Kerr "Merry Melodies" v.3 p.49 #435
Z: 2016 John Chambers <jc:trillian.mit.edu>
N: Note the 1-note difference between bars 3, 9.
M: 3/4
L: 1/8
K: A
|:!p!\
(c3d^de) | (f3ecA) | (f3ecA) | (A4G2) |\
(B3cd^d) | (e3fdB) | (g3fdB) | (^B4c2) |\
(c3d^de) | (f3ecA) | (f3edA) | (A4G2) |
(B3cd^d) | (e3fdB) | (g3fdB) | A4z2 H::\
!mf!\
(e2^defe) | (e4^d2) | (=d2cded) | (d4c2) |\
(A2^GABA) | (AE)FGAB | cd^defg | abc'2z2 |
(e2^defe) | (e4^d2) | (=d2cded) | (d4c2) |\
(a2gaba) | (ae)e'c'ae | cdfedB | A2z2"_D.C."z2 :|\
[K:=g][K:D]"Trio."\
|:!f!\
a2aaa2 | b4a2 | (3(aba)g2z2 | A,6 |
e2f2g2 | (b4a2) | (3(aba)f2z2 | D6 |\
a2aaa2 | b4a2 | (3(aba)g2z2 | A,4AB |\
(cdefg2) | (e'd'c'ba2) | fgbage | d2D2"_D.C."z2 :|

%%sep 1 1 500
%%sep 1 1 500

